X:1
T:Title
%%score { ( 1 4 ) | ( 2 3 ) }
L:1/8
Q:1/4=104
M:4/4
K:Bb
V:1 treble nm="Grand Piano"
V:4 treble 
V:2 bass 
V:3 bass 
V:1
 B2 F2 D2 B,2 | DF[DB]c [Fd]>c B2 | e2 d2 c2 B2 | A2 B2 [FAc]4 | c2 A2 F2 C2 | =EGBd c>B A2 | %6
w: Charles~H.~Gabriel * * *||||||
 G2 d2 c2 B2 |[M:3/4] A2 [=EG]2 F2 |[M:1/4] F>B |[M:4/4] z2 d4 z2 | z2 d4 z2 | %11
w: |||||
 [Fd]>[DB] [Fd]>[DB] [Ge]2 [Fd]2 | [EG]6 z2 | .[Gc]2 c2- [Gc]2 G>G | .[Gc]2 c2- [Gc]2 G>G | %15
w: ||||
 [Ec]>[EG] [Ec]>[EG] [=Ed]2 [Ec]2 | B2 A2 G2 F>F | d2 d2- [Fd]2 .[DF]>B | %18
w: |||
 .[Fd]2 d2- [Fd]2 [DF]>[DB] | [Fd]>[DB] [Fd]>[DB] [Ge]2 [Fd]2 | [EG]6 z2 | c2 z2 .F2 (3cde | %22
w: ||||
 f2- [Af-]2 [Bf]2 [Ge]2 | d3 d c2 c2 | [DB]6 z2 |] %25
w: |||
V:2
 B,2 F,2 D,2 B,,2 | D,F, z[K:treble] E z z/ E/ [B,D]2 | [B,G]2 [B,F]2 [B,EF]2 [B,DF]2 | %3
 [CEF]2 [B,DF]2[K:bass] F,4 | C2 A,2 F,2 C,2 | =E,G,B,[K:treble]D C>B, A,2 | %6
 [B,DF]2 [_A,=B,F]2 [=A,CF]2 [_B,DG]2 |[M:3/4] [CF]2[K:bass] [C,B,]2 [F,A,]2 |[M:1/4] F,>[F,D] | %9
[M:4/4] .[B,,B,]2 .[B,,B,]2 .[B,,B,]2 .[B,,B,]2 | .[B,,B,]2 .[B,,B,]2 .[B,,B,]2 .[B,,B,]2 | %11
 .[B,,B,]2 .[B,,B,]2 .[B,,B,]2 .[B,,B,]2 | .[E,B,]2 .E,2 .E,2 [E,B,E]>[E,B,E] | %13
 .[E,B,]2 .[E,B,]2 .[E,B,]2 .[E,B,]2 | .[E,C]2 .[E,B,]2 .[E,B,]2 .[E,B,]2 | %15
 .[C,B,]2 .[C,B,]2 .[C,B,]2 .[C,B,]2 | [F,CE]2 [F,CE]2[K:treble] [G,B,E]2 [A,C]>[A,C] | %17
 .[B,F]2[K:bass] .[B,,B,]2 .[B,,B,]2 .[B,,B,]2 | .[B,,B,]2 .[B,,B,]2 .[B,,B,]2 .[B,,B,]2 | %19
 .[B,,B,]2 .[B,,B,]2 .[B,,B,]2 .[B,,B,]2 | .[E,B,]2 .E,2 .E,2 .[=E,B,]2 | %21
 .[F,A,F]2 .[G,B,=E]2 .[A,C]2 .[F,A,F]2 | [D,B,]2 [F,C]2 [B,D]2 [E,B,]2 | %23
 [F,B,F]3 [F,B,F] [F,A,E]2 [F,E]2 | [B,,F,]6 z2 |] %25
V:3
 x8 | z2 B,2[K:treble] B,2 z2 | x8 | x4[K:bass] x4 | x8 | x3[K:treble] x5 | x8 | %7
[M:3/4] x2[K:bass] x4 |[M:1/4] x2 |[M:4/4] x8 | x8 | x8 | x8 | x8 | x8 | x8 | x4[K:treble] x4 | %17
 x2[K:bass] x6 | x8 | x8 | x8 | x8 | x8 | x8 | x8 |] %25
V:4
 x8 | x8 | x8 | x8 | x8 | x8 | x8 |[M:3/4] x6 |[M:1/4] x2 |[M:4/4] .[Fd]2 .F2 .F2 .[DF]>B | %10
 .[Fd]2 .F2 .F2 [DF]>[DB] | x8 | z2 .B,2 .B,2 G>G | z2 .G2 z4 | z2 .G2 z4 | x8 | x8 | z2 .F2 z4 | %18
 z2 .F2 z4 | x8 | z2 .B,2 .B,2 (3GAB | z2 c4 z2 | F2 z2 z4 | x8 | x8 |] %25

